dist/images/service-5.svg

<svg xmlns="http://www.w3.org/2000/svg" width="119" height="100"><path fill-rule="evenodd" fill="#DB8306" d="M95.922 52.611V52.1h-.488c-.753 0-.794-.774-.794-1.599s.041-1.401.794-1.401h.488V38.665c0-.753.729-1.172 1.42-1.172h3.805c2.119 0 4.478.937 5.743 2.7 1.036 1.428 1.246 3.248.433 5.017-.709 1.189-2.173 2.272-3.627 2.764-1.572.531-3.284.396-4.927.396v.73h.668c.754 0 1.371.576 1.371 1.401 0 .825-.617 1.599-1.371 1.599h-.668v.511c0 .528-.401.926-.883 1.087a1.766 1.766 0 01-1.081 0c-.478-.16-.883-.56-.883-1.087zM12.261 76.976h14.097a1.93 1.93 0 011.363.563c.959.348.564.828.564 1.359V98.78c0-.173.395 1.12-.564.656-.35.349-.832.563-1.363.563H12.261a1.92 1.92 0 01-1.363-.563c-.349.454-.566-.829-.566-.656V78.898a1.93 1.93 0 011.929-1.922zm13.016 2.999H13.34V97.1h11.937V79.975zM65.54 50.139h13.613c.531 0 1.015.216 1.363.563.349.798 1.284.829 1.284 1.908v46.17c0-.173-.935 1.11-1.284.656-.35.349-.832.563-1.363.563H65.54c-1.017 0-1.13-.214-1.847-.563-.349.464-.566-.829-.566-.656V52.61c0-1.079.217-1.12.566-1.908.717-.347.83-.563 1.847-.563zm13.18 2.999H66.135V97.1H78.72V53.138zm12.731 20.619h14.1c1.269 0 1.014.217 1.363.563.348.349.564.829.564 1.359V98.78c0-.173-.216 1.11-.564.656-.349.349-.094.563-1.363.563h-14.1c-.53 0-1.012-.214-.551-.563-1.158.464-1.376-.829-1.376-.656V75.679c0-.531.218-1.011 1.376-1.359-.461-.346.021-.563.551-.563zm13.019 2.999H92.532V97.1h11.938V76.756zM38.658 64.947h14.098a1.92 1.92 0 011.927 1.921V98.78c0-.173-.216 1.11-.564.656a1.924 1.924 0 01-1.363.563H38.658a1.922 1.922 0 01-1.363-.563c-.348.454-.566-.829-.566-.656V66.868a1.931 1.931 0 011.929-1.921zm13.017 2.999H39.737V97.1h11.938V67.946zM13.24 60.207v-.612h-.705c-.754 0-1.369-.674-1.369-.635 0-1.689.615-2.364 1.369-2.364h.705V46.26c0-.753.511-.38 1.202-.38h3.807c2.119 0 4.479.36 5.742 1.908 1.299 1.429 1.245 3.572.434 4.828-.709 1.378-2.175 3.154-3.626 2.952-1.573.532-3.286.397-4.929.397v.631h.669c.754 0 1.369.675 1.369 2.364 0-.039-.615.635-1.369.635h-.669v.612c0 .528-.402.926-.882 1.086a1.77 1.77 0 01-1.082 0c-.478-.159-.666-.56-.666-1.086zm15.556-21.779l9.13-9.027a17.885 17.885 0 01-4.091-11.407c0-4.744 2.021-9.468 5.287-12.724C42.387 2.13 46.901 0 51.882 0c4.984 0 9.496 2.13 12.762 5.27 3.265 3.256 5.286 7.98 5.286 12.724 0 2.867-.672 5.578-1.33 7.984l16.89 10.359c.758-.447 1.663-2.397 2.691-3.423a18.02 18.02 0 0112.762-5.27c4.984 0 9.496 2.014 12.76 5.27a17.909 17.909 0 015.288 12.724c0 4.969-2.021 9.468-5.288 12.724a18.008 18.008 0 01-12.76 5.271 18.016 18.016 0 01-12.762-5.271 17.918 17.918 0 01-5.285-12.724c0-2.332.444-3.878 1.255-6.338L66.503 28.544c-.562.773-1.183 1.896-1.859 2.173a18.017 18.017 0 01-12.762 5.272c-4.541 0-8.69-1.674-11.692-4.436l-9.275 9.004-.033.03c3.221 3.25 6.028 7.717 6.028 12.646 0 4.968-2.19 9.468-6.105 12.725-3.266 3.256-7.535 5.27-12.375 5.27-4.81 0-9.88-2.014-13.147-5.27C2.17 62.701.3 58.201.3 53.233s1.87-9.468 4.983-12.724c3.267-3.256 8.337-5.271 13.147-5.271 3.559 0 7.21 1.264 10.18 3.406.053-.073.116-.146.186-.216zm18.067-13.462v-.61h-.489c-.754 0-.874-.674-.874-1.499v-.001c0-.546.12-1.499.874-1.499h.489V11.2c0-.933.727-1.351 1.418-1.351h4.579c1.347 0 3.707.937 4.97 2.699 1.038 1.428 1.92 3.248.432 4.829-.707 1.378-1.372 2.461-3.624 2.952-.988.531-3.286.396-4.929.396v.632h.669c.754 0 1.369.953 1.369 1.499v.001c0 .825-.615 1.499-1.369 1.499h-.669v.61c0 .528-.402.927-.881 1.574-.337-.374-.018-.374-1.083 0-.478-.646-.882-1.047-.882-1.574zm-5.614 3.631a15.007 15.007 0 0010.633 4.392c4.478 0 7.914-1.678 10.636-4.392a14.932 14.932 0 004.404-10.603A14.93 14.93 0 0062.518 7.39c-2.722-2.713-6.158-4.391-10.636-4.391A15.01 15.01 0 0041.249 7.39a14.924 14.924 0 00-4.406 10.604c0 4.14 1.684 7.89 4.406 10.603zm8.46-16.392v6.164c.948 0 2.238.089 3.153-.061a4.264 4.264 0 001.927-.848c.669-.539 1.126-1.299 1.126-2.173 0-.657-.243-.757-.662-1.73-.666-.794-1.273-1.352-2.293-1.352h-3.251zM7.41 63.837c2.72 2.713 6.48 4.391 11.02 4.391 3.767 0 7.527-1.678 10.249-4.391 2.722-2.714 5.151-6.463 5.151-10.604 0-3.313-2.429-7.89-5.151-10.603-2.722-2.714-6.482-4.392-10.249-4.392-4.54 0-8.3 1.678-11.02 4.392-2.722 2.713-4.01 7.29-4.01 10.603 0 4.141 1.288 7.89 4.01 10.604zm8.46-16.392v6.164c.947 0 2.24.089 3.36-.061a4.708 4.708 0 001.719-.848c.67-.539 1.801-1.3 1.801-2.173 0-.658-.917-1.234-1.336-1.73-.666-.597-2.155-1.352-3.157-1.352H15.87zm74.438 8.797c2.992 2.714 6.482 4.392 10.635 4.392 5.027 0 7.913-1.678 10.634-4.392a14.928 14.928 0 004.406-10.604c0-4.141-1.685-7.89-4.406-10.288-2.721-3.029-5.607-4.707-10.634-4.707-4.153 0-7.643 1.678-10.635 4.707-2.72 2.398-4.404 6.147-4.404 10.288a14.93 14.93 0 004.404 10.604zm8.461-16.392v6.29c.948 0 3.031-.037 3.151-.187a4.247 4.247 0 001.927-.848c.67-.539 1.128-1.299 1.128-2.173 0-.657-.243-1.234-.662-1.73-.667-.795-2.154-1.352-3.158-1.352h-2.386z"/></svg>

<svg 
 xmlns="http://www.w3.org/2000/svg"
 xmlns:xlink="http://www.w3.org/1999/xlink"
 width="119px" height="100px">
<path fill-rule="evenodd"  fill="rgb(219, 131, 6)"
 d="M95.922,52.611 L95.922,52.1 L95.434,52.1 C94.681,52.1 94.64,51.326 94.64,50.501 L94.64,50.501 C94.64,49.676 94.681,49.1 95.434,49.1 L95.922,49.1 L95.922,38.665 C95.922,37.912 96.651,37.493 97.342,37.493 L101.147,37.493 C103.266,37.493 105.625,38.430 106.890,40.193 C107.926,41.621 108.136,43.441 107.323,45.21 C106.614,46.399 105.150,47.482 103.696,47.974 C102.124,48.505 100.412,48.370 98.769,48.370 L98.769,49.1 L99.437,49.1 C100.191,49.1 100.808,49.676 100.808,50.501 L100.808,50.501 C100.808,51.326 100.191,52.1 99.437,52.1 L98.769,52.1 L98.769,52.611 C98.769,53.139 98.368,53.537 97.886,53.698 C97.551,53.811 97.142,53.811 96.805,53.698 C96.327,53.538 95.922,53.138 95.922,52.611 L95.922,52.611 ZM12.261,76.976 L26.358,76.976 C26.891,76.976 27.373,77.193 27.721,77.539 C28.68,77.887 28.285,78.367 28.285,78.898 L28.285,98.78 C28.285,98.607 28.68,99.90 27.721,99.436 C27.371,99.785 26.889,99.999 26.358,99.999 L12.261,99.999 C11.730,99.999 11.246,99.785 10.898,99.436 C10.549,99.89 10.332,98.607 10.332,98.78 L10.332,78.898 C10.332,78.368 10.549,77.888 10.898,77.539 C11.246,77.193 11.728,76.976 12.261,76.976 L12.261,76.976 ZM25.277,79.975 L13.340,79.975 L13.340,97.1 L25.277,97.1 L25.277,79.975 L25.277,79.975 ZM65.54,50.139 L79.153,50.139 C79.684,50.139 80.168,50.355 80.516,50.702 C80.865,51.50 81.80,51.531 81.80,52.61 L81.80,98.78 C81.80,98.607 80.865,99.89 80.516,99.436 C80.166,99.785 79.684,99.999 79.153,99.999 L65.54,99.999 C64.523,99.999 64.41,99.785 63.693,99.436 C63.344,99.90 63.127,98.607 63.127,98.78 L63.127,52.61 C63.127,51.531 63.344,51.49 63.693,50.702 C64.41,50.355 64.523,50.139 65.54,50.139 L65.54,50.139 ZM78.72,53.138 L66.135,53.138 L66.135,97.1 L78.72,97.1 L78.72,53.138 L78.72,53.138 ZM91.451,73.757 L105.551,73.757 C106.82,73.757 106.565,73.974 106.914,74.320 C107.262,74.669 107.478,75.149 107.478,75.679 L107.478,98.78 C107.478,98.607 107.262,99.89 106.914,99.436 C106.565,99.785 106.82,99.999 105.551,99.999 L91.451,99.999 C90.921,99.999 90.439,99.785 90.90,99.436 C89.742,99.90 89.524,98.607 89.524,98.78 L89.524,75.679 C89.524,75.148 89.742,74.668 90.90,74.320 C90.439,73.974 90.921,73.757 91.451,73.757 L91.451,73.757 ZM104.470,76.756 L92.532,76.756 L92.532,97.1 L104.470,97.1 L104.470,76.756 L104.470,76.756 ZM38.658,64.947 L52.756,64.947 C53.286,64.947 53.770,65.164 54.119,65.510 C54.467,65.859 54.683,66.340 54.683,66.868 L54.683,98.78 C54.683,98.607 54.467,99.89 54.119,99.436 C53.770,99.785 53.286,99.999 52.756,99.999 L38.658,99.999 C38.127,99.999 37.644,99.785 37.295,99.436 C36.947,99.89 36.729,98.607 36.729,98.78 L36.729,66.868 C36.729,66.340 36.947,65.859 37.295,65.510 C37.644,65.164 38.125,64.947 38.658,64.947 L38.658,64.947 ZM51.675,67.946 L39.737,67.946 L39.737,97.1 L51.675,97.1 L51.675,67.946 L51.675,67.946 ZM13.24,60.207 L13.24,59.595 L12.535,59.595 C11.781,59.595 11.166,58.921 11.166,58.96 L11.166,58.96 C11.166,57.271 11.781,56.596 12.535,56.596 L13.24,56.596 L13.24,46.260 C13.24,45.507 13.751,45.88 14.442,45.88 L18.249,45.88 C20.368,45.88 22.728,46.24 23.991,47.788 C25.29,49.217 25.236,51.36 24.425,52.616 C23.716,53.994 22.250,55.77 20.799,55.568 C19.226,56.100 17.513,55.965 15.870,55.965 L15.870,56.596 L16.539,56.596 C17.293,56.596 17.908,57.271 17.908,58.96 L17.908,58.96 C17.908,58.921 17.293,59.595 16.539,59.595 L15.870,59.595 L15.870,60.207 C15.870,60.735 15.468,61.133 14.988,61.293 C14.652,61.406 14.242,61.406 13.906,61.293 C13.428,61.134 13.24,60.733 13.24,60.207 L13.24,60.207 ZM28.796,38.428 L37.926,29.401 C35.370,26.297 33.835,22.323 33.835,17.994 C33.835,13.25 35.856,8.526 39.122,5.270 C42.387,2.13 46.901,0.0 51.882,0.0 C56.866,0.0 61.378,2.13 64.644,5.270 C67.909,8.526 69.930,13.25 69.930,17.994 C69.930,20.861 69.258,23.572 68.60,25.978 L85.490,36.337 C86.248,35.89 87.153,33.940 88.181,32.914 C91.447,29.658 95.959,27.644 100.943,27.644 C105.927,27.644 110.439,29.658 113.703,32.914 C116.970,36.170 118.991,40.669 118.991,45.638 C118.991,50.607 116.970,55.106 113.703,58.362 C110.439,61.619 105.927,63.633 100.943,63.633 C95.959,63.633 91.447,61.619 88.181,58.362 C84.917,55.106 82.896,50.607 82.896,45.638 C82.896,43.306 83.340,41.76 84.151,39.30 L66.503,28.544 C65.941,29.317 65.320,30.44 64.644,30.717 C61.378,33.974 56.866,35.989 51.882,35.989 C47.341,35.989 43.192,34.315 40.19,31.553 L30.915,40.557 L30.882,40.587 C34.103,43.837 36.91,48.304 36.91,53.233 C36.91,58.201 34.72,62.701 30.805,65.958 C27.539,69.214 23.27,71.228 18.43,71.228 C13.62,71.228 8.550,69.214 5.283,65.958 C2.17,62.701 0.3,58.201 0.3,53.233 C0.3,48.265 2.17,43.765 5.283,40.509 C8.550,37.253 13.62,35.238 18.43,35.238 C21.989,35.238 25.640,36.502 28.610,38.644 C28.663,38.571 28.726,38.498 28.796,38.428 L28.796,38.428 ZM46.863,24.966 L46.863,24.356 L46.374,24.356 C45.620,24.356 45.5,23.682 45.5,22.857 L45.5,22.856 C45.5,22.31 45.620,21.357 46.374,21.357 L46.863,21.357 L46.863,11.20 C46.863,10.267 47.590,9.849 48.281,9.849 L52.86,9.849 C54.207,9.849 56.567,10.786 57.830,12.548 C58.868,13.976 59.75,15.796 58.262,17.377 C57.555,18.755 56.89,19.838 54.638,20.329 C53.65,20.860 51.352,20.725 49.709,20.725 L49.709,21.357 L50.378,21.357 C51.132,21.357 51.747,22.31 51.747,22.856 L51.747,22.857 C51.747,23.682 51.132,24.356 50.378,24.356 L49.709,24.356 L49.709,24.966 C49.709,25.494 49.307,25.893 48.828,26.54 C48.491,26.166 48.81,26.166 47.745,26.54 C47.267,25.894 46.863,25.493 46.863,24.966 L46.863,24.966 ZM41.249,28.597 C43.969,31.311 47.729,32.989 51.882,32.989 C56.36,32.989 59.796,31.311 62.518,28.597 C65.238,25.884 66.922,22.134 66.922,17.994 C66.922,13.852 65.238,10.103 62.518,7.390 C59.796,4.677 56.36,2.999 51.882,2.999 C47.729,2.999 43.969,4.677 41.249,7.390 C38.527,10.103 36.843,13.852 36.843,17.994 C36.843,22.134 38.527,25.884 41.249,28.597 L41.249,28.597 ZM49.709,12.205 L49.709,18.369 C50.657,18.369 51.947,18.458 52.862,18.308 C53.547,18.195 54.246,17.895 54.789,17.460 C55.458,16.921 55.915,16.161 55.915,15.287 C55.915,14.630 55.672,14.53 55.253,13.557 C54.587,12.763 53.98,12.205 52.96,12.205 L49.709,12.205 L49.709,12.205 ZM7.410,63.837 C10.130,66.550 13.890,68.228 18.43,68.228 C22.197,68.228 25.957,66.550 28.679,63.837 C31.401,61.123 33.83,57.374 33.83,53.233 C33.83,49.92 31.401,45.343 28.679,42.630 C25.957,39.916 22.197,38.238 18.43,38.238 C13.890,38.238 10.130,39.916 7.410,42.630 C4.688,45.343 3.4,49.92 3.4,53.233 C3.4,57.374 4.688,61.123 7.410,63.837 L7.410,63.837 ZM15.870,47.445 L15.870,53.609 C16.817,53.609 18.110,53.698 19.23,53.548 C19.708,53.435 20.409,53.135 20.949,52.700 C21.619,52.161 22.75,51.400 22.75,50.527 C22.75,49.869 21.833,49.293 21.414,48.797 C20.748,48.2 19.259,47.445 18.257,47.445 L15.870,47.445 L15.870,47.445 ZM90.308,56.242 C93.30,58.956 96.790,60.634 100.943,60.634 C105.97,60.634 108.856,58.956 111.577,56.242 C114.298,53.529 115.983,49.780 115.983,45.638 C115.983,41.497 114.298,37.748 111.577,35.35 C108.856,32.321 105.97,30.643 100.943,30.643 C96.790,30.643 93.30,32.321 90.308,35.35 C87.588,37.748 85.904,41.497 85.904,45.638 C85.904,49.780 87.588,53.529 90.308,56.242 L90.308,56.242 ZM98.769,39.850 L98.769,46.14 C99.717,46.14 101.8,46.103 101.920,45.953 C102.608,45.839 103.307,45.540 103.847,45.105 C104.517,44.566 104.975,43.806 104.975,42.932 C104.975,42.275 104.732,41.698 104.313,41.202 C103.646,40.407 102.159,39.850 101.155,39.850 L98.769,39.850 L98.769,39.850 Z"/>
</svg>
